X: 37
T:Missa Pro Defunctis / Offertory
N: Derived from Jos0404d-Missa_Pro_Defunctis-Offertory.krn
C: Josquin des Prez
%%abc-version 2.0
%%abcx-abcm2ps-target-version 5.9.1 (29 Sep 2008)
%%abc-creator hum2abc beta
%%abcx-conversion-date 2019/02/12 16:15:39
%%abc-edited-by Jesse Rodin
%%abc-edited-by /Will Watson 06/07/2011
%%abcx-initial-encoding-date 2012/01/21/
%%humdrum-veritas 3339235361
%%humdrum-veritas-data 3928845615
%%linebreak <none>
%%barnumbers 0
L: 1/4
M: 2/1
Q: 1/2=120
V: 1 clef=treble
V: 2 clef=treble-8
V: 3 clef=treble-8
V: 4 clef=treble-8
V: 5 clef=treble-8
V: 6 clef=bass
K: F
[V:1] A8- | 
[V:2] e8 | 
[V:3] A8 | 
[V:4] z8 | 
[V:5] z8 | 
[V:6] z4A,4 | 
[V:1] A8 | 
[V:2] f8- | 
[V:3] c6c2 | 
[V:4] z8 | 
[V:5] z8 | 
[V:6] F,4F,4 | 
[V:1] B8 | 
[V:2] f4d4 | 
[V:3] d4G4 | 
[V:4] z8 | 
[V:5] z8 | 
[V:6] B,8 | 
[V:1] c8- | 
[V:2] e8 | 
[V:3] z4c4 | 
[V:4] z8 | 
[V:5] z8 | 
[V:6] A,8 | 
[V:1] c8 | 
[V:2] z4e4 | 
[V:3] A3Bc3B | 
[V:4] z8 | 
[V:5] z8 | 
[V:6] z4A,4 | 
[V:1] A6G2 | 
[V:2] f6ed | 
[V:3] cAd3cdB | 
[V:4] z8 | 
[V:5] z8 | 
[V:6] F,4B,4 | 
[V:1] A4B4- | 
[V:2] e2f2B4- | 
[V:3] c4d4 | 
[V:4] z8 | 
[V:5] z8 | 
[V:6] A,4G,4- | 
[V:1] B2A2G4- | 
[V:2] B4c4 | 
[V:3] G8 | 
[V:4] z8 | 
[V:5] z8 | 
[V:6] G,2F,2E,4 | 
[V:1] G2FEF4 | 
[V:2] d8 | 
[V:3] A8 | 
[V:4] z8 | 
[V:5] z8 | 
[V:6] D,8 | 
[V:1] G8- | 
[V:2] e6dc | 
[V:3] z4c4- | 
[V:4] z8 | 
[V:5] z8 | 
[V:6] C,8 | 
[V:1] G8 | 
[V:2] e4d4- | 
[V:3] c4B4 | 
[V:4] z8 | 
[V:5] z8 | 
[V:6] z4G,4 | 
[V:1] z4A4- | 
[V:2] d2cBA4 | 
[V:3] A4d4 | 
[V:4] z8 | 
[V:5] z8 | 
[V:6] F,6G,2 | 
[V:1] A4F4 | 
[V:2] z8 | 
[V:3] c4d4 | 
[V:4] z8 | 
[V:5] z8 | 
[V:6] A,4B,4 | 
[V:1] G4G4 | 
[V:2] d4d2d2 | 
[V:3] z8 | 
[V:4] B8 | 
[V:5] z8 | 
[V:6] G,8- | 
[V:1] G8 | 
[V:2] d6e2 | 
[V:3] z8 | 
[V:4] B4B4 | 
[V:5] z8 | 
[V:6] G,8 | 
[V:1] A8- | 
[V:2] f4f2f2 | 
[V:3] z8 | 
[V:4] c8 | 
[V:5] F8 | 
[V:6] F,3G,A,4 | 
[V:1] A8 | 
[V:2] f8 | 
[V:3] d4d2d2 | 
[V:4] A8 | 
[V:5] F4F4 | 
[V:6] D,4D,2D,2 | 
[V:1] G4G4 | 
[V:2] z4d4 | 
[V:3] d4d2d2 | 
[V:4] B8 | 
[V:5] G8 | 
[V:6] G,4G,,4 | 
[V:1] G6G2 | 
[V:2] e4c4 | 
[V:3] G6FE | 
[V:4] c8 | 
[V:5] E8 | 
[V:6] C,4C,4 | 
[V:1] B4B4 | 
[V:2] f8 | 
[V:3] D4d3c | 
[V:4] d8- | 
[V:5] F8 | 
[V:6] B,,8 | 
[V:1] B2B2B2B2 | 
[V:2] d4B4 | 
[V:3] BAB3AG2 | 
[V:4] d8 | 
[V:5] G8 | 
[V:6] z8 | 
[V:1] A3GABA2- | 
[V:2] c2F2f3e | 
[V:3] F4D2F2- | 
[V:4] z8 | 
[V:5] A8- | 
[V:6] z8 | 
[V:1] AGG4^F2 | 
[V:2] c2e2d4 | 
[V:3] FEC2D2d2- | 
[V:4] z4d4- | 
[V:5] A8 | 
[V:6] z4D,4 | 
[V:1] G8 | 
[V:2] B4z2G2 | 
[V:3] dcBAB4 | 
[V:4] d4d4 | 
[V:5] z8 | 
[V:6] G,4G,4 | 
[V:1] z4A4- | 
[V:2] G4F4 | 
[V:3] c6A2 | 
[V:4] _e4c4 | 
[V:5] z4A4- | 
[V:6] _E,4F,4- | 
[V:1] A4F4 | 
[V:2] f4f4 | 
[V:3] A4z2D2 | 
[V:4] d8 | 
[V:5] A4A4 | 
[V:6] F,2D,2D,4 | 
[V:1] G4G4 | 
[V:2] d8- | 
[V:3] G4D4 | 
[V:4] B8 | 
[V:5] B4G4 | 
[V:6] z4G,,4 | 
[V:1] z2D2F4- | 
[V:2] d6cB | 
[V:3] F3GABA2- | 
[V:4] z8 | 
[V:5] A8 | 
[V:6] D,8 | 
[V:1] F2GAB4- | 
[V:2] A4z4 | 
[V:3] AGFED4 | 
[V:4] d6d2 | 
[V:5] F8 | 
[V:6] D,4B,,4 | 
[V:1] B2B/A/G/F/G4 | 
[V:2] G6G2 | 
[V:3] z8 | 
[V:4] _e4c4 | 
[V:5] z8 | 
[V:6] _E,8 | 
[V:1] F8 | 
[V:2] A4F4 | 
[V:3] z4z2d2 | 
[V:4] d8 | 
[V:5] A6A2 | 
[V:6] D,8 | 
[V:1] z8 | 
[V:2] G4B3c | 
[V:3] d2d2d2e2- | 
[V:4] B8 | 
[V:5] B4G4 | 
[V:6] G,4G,2G,2 | 
[V:1] z4A4- | 
[V:2] def3ee2 | 
[V:3] edd4c2 | 
[V:4] z8 | 
[V:5] A8 | 
[V:6] F,2D,2A,4 | 
[V:1] A4F4 | 
[V:2] d2f3edc | 
[V:3] d3c/B/AGA2 | 
[V:4] d6d2 | 
[V:5] F8 | 
[V:6] D,8 | 
[V:1] G2B2A2G2- | 
[V:2] B4z4 | 
[V:3] G3F/G/F2E2 | 
[V:4] _e4c4 | 
[V:5] z8 | 
[V:6] z8 | 
[V:1] G2^FEF4 | 
[V:2] z4d4- | 
[V:3] D4z2D2 | 
[V:4] d8 | 
[V:5] A6A2 | 
[V:6] D,8 | 
[V:1] G8 | 
[V:2] d2c2B4 | 
[V:3] D4D4 | 
[V:4] B8 | 
[V:5] B4G4 | 
[V:6] G,,4G,,4 | 
[V:1] z4A4- | 
[V:2] A4F4 | 
[V:3] F6G2 | 
[V:4] z8 | 
[V:5] A8 | 
[V:6] D,8- | 
[V:1] A4F4 | 
[V:2] f6ed | 
[V:3] A6GF | 
[V:4] z8 | 
[V:5] F8 | 
[V:6] D,8 | 
[V:1] G4B4- | 
[V:2] e4f4- | 
[V:3] c4d4- | 
[V:4] z8 | 
[V:5] z8 | 
[V:6] C,4B,,4 | 
[V:1] B4A4- | 
[V:2] f4f4 | 
[V:3] d4c4 | 
[V:4] z8 | 
[V:5] z8 | 
[V:6] F,8 | 
[V:1] A4G4 | 
[V:2] e4d3e | 
[V:3] B4G4 | 
[V:4] z8 | 
[V:5] z8 | 
[V:6] G,8 | 
[V:1] A8 | 
[V:2] f2g4^f2 | 
[V:3] d8 | 
[V:4] z8 | 
[V:5] z8 | 
[V:6] D,8 | 
[V:1] G8- | 
[V:2] g4d4 | 
[V:3] d3cB2A2 | 
[V:4] B8 | 
[V:5] z8 | 
[V:6] z2G,2G,3F, | 
[V:1] G8 | 
[V:2] _e8 | 
[V:3] G8 | 
[V:4] B4c4 | 
[V:5] z8 | 
[V:6] _E,2D,2C,4 | 
[V:1] z8 | 
[V:2] d3cdef2- | 
[V:3] F4D4 | 
[V:4] A4B2d2- | 
[V:5] F8 | 
[V:6] D,4B,,4- | 
[V:1] z8 | 
[V:2] fecd_e2d2 | 
[V:3] z2A2B2G2- | 
[V:4] dcc4B2 | 
[V:5] F4G4 | 
[V:6] B,,2A,,2G,,4 | 
[V:1] c4c3B | 
[V:2] G2g2f3e/d/ | 
[V:3] GFGEA3B | 
[V:4] c8 | 
[V:5] E4F2A2- | 
[V:6] C,4z4 | 
[V:1] AGB4A2- | 
[V:2] efg2e2f2 | 
[V:3] cAd2G2d2- | 
[V:4] z8 | 
[V:5] AGG4F2 | 
[V:6] z8 | 
[V:1] A2GFG4 | 
[V:2] d8 | 
[V:3] dcBAB4 | 
[V:4] z8 | 
[V:5] G8 | 
[V:6] z4G,,4 | 
[V:1] A4F4 | 
[V:2] z2d4A2 | 
[V:3] A4z2F2 | 
[V:4] z4d4 | 
[V:5] z8 | 
[V:6] D,4D,2D,2 | 
[V:1] G4B4 | 
[V:2] c3cB2G2 | 
[V:3] _E2C2G3D | 
[V:4] _e6d2 | 
[V:5] z8 | 
[V:6] C,4z4 | 
[V:1] A2G2A4 | 
[V:2] A2d4d2 | 
[V:3] F2G2D2d2- | 
[V:4] c2B2A4 | 
[V:5] z4A4 | 
[V:6] z4F,4 | 
[V:1] D4z4 | 
[V:2] B4G4 | 
[V:3] d2G2d3c | 
[V:4] G4z4 | 
[V:5] B6A2 | 
[V:6] G,4B,4- | 
[V:1] z8 | 
[V:2] g6fe | 
[V:3] _e2d4c2 | 
[V:4] z8 | 
[V:5] G2F2_E4 | 
[V:6] B,2A,2G,4 | 
[V:1] d8 | 
[V:2] f4g4 | 
[V:3] d4z2G2 | 
[V:4] z4d4 | 
[V:5] D8 | 
[V:6] A,4G,4 | 
[V:1] c6B2 | 
[V:2] z2g2g3f | 
[V:3] G4_E4- | 
[V:4] _e6d2 | 
[V:5] z8 | 
[V:6] C,8 | 
[V:1] A2G4^F2 | 
[V:2] _e4d4- | 
[V:3] E2DCF4 | 
[V:4] c2B2A4 | 
[V:5] z4A4 | 
[V:6] C,4D,4 | 
[V:1] G4G4 | 
[V:2] d4G3A | 
[V:3] D4d3c | 
[V:4] G8 | 
[V:5] B6A2 | 
[V:6] G,,8 | 
[V:1] G8 | 
[V:2] Bcd4c2 | 
[V:3] BAA4G2 | 
[V:4] z8 | 
[V:5] G2F2_E4 | 
[V:6] z8 | 
[V:1] F4D4 | 
[V:2] d4A4 | 
[V:3] A4z4 | 
[V:4] z8 | 
[V:5] D8 | 
[V:6] z4D,4 | 
[V:1] z4F4 | 
[V:2] z4d4 | 
[V:3] A8 | 
[V:4] z8 | 
[V:5] z8 | 
[V:6] D,8 | 
[V:1] G4A4- | 
[V:2] e4f4- | 
[V:3] c8 | 
[V:4] z8 | 
[V:5] z8 | 
[V:6] C,4A,,4 | 
[V:1] A2GFG2A2 | 
[V:2] f2ede4 | 
[V:3] c8 | 
[V:4] z8 | 
[V:5] z8 | 
[V:6] C,8 | 
[V:1] B4A4 | 
[V:2] f6ed | 
[V:3] F8 | 
[V:4] z8 | 
[V:5] z8 | 
[V:6] D,6E,2 | 
[V:1] A8 | 
[V:2] c4z2A2 | 
[V:3] z2A2cBcd | 
[V:4] z8 | 
[V:5] z8 | 
[V:6] F,6E,D, | 
[V:1] z4A4- | 
[V:2] c2d2e4 | 
[V:3] e2d4c2 | 
[V:4] z8 | 
[V:5] z8 | 
[V:6] A,8 | 
[V:1] A4A4 | 
[V:2] f6ed | 
[V:3] d4A4 | 
[V:4] z8 | 
[V:5] z8 | 
[V:6] z2D,2F,4 | 
[V:1] G4G4 | 
[V:2] e4d4 | 
[V:3] z4z2G2 | 
[V:4] z8 | 
[V:5] z8 | 
[V:6] G,4B,4- | 
[V:1] F4F4 | 
[V:2] d4c4 | 
[V:3] B4c4 | 
[V:4] z8 | 
[V:5] z8 | 
[V:6] B,4A,4 | 
[V:1] G3AB2A2- | 
[V:2] B3cdef2 | 
[V:3] _e3dBcd2 | 
[V:4] z8 | 
[V:5] z8 | 
[V:6] G,6F,2 | 
[V:1] AGG4^F2 | 
[V:2] g2c2d4 | 
[V:3] cBAGA4 | 
[V:4] z8 | 
[V:5] z8 | 
[V:6] E,4D,4 | 
[V:1] G8 | 
[V:2] d8 | 
[V:3] G4z2D2 | 
[V:4] B8 | 
[V:5] z8 | 
[V:6] G,,8- | 
[V:1] z4G4 | 
[V:2] z4d4 | 
[V:3] G8 | 
[V:4] B4B4 | 
[V:5] z8 | 
[V:6] G,,8 | 
[V:1] A6B2 | 
[V:2] f6ed | 
[V:3] F4A4- | 
[V:4] c8 | 
[V:5] F8 | 
[V:6] z8 | 
[V:1] c8 | 
[V:2] c2B2A4 | 
[V:3] A2B2c2A2 | 
[V:4] A8 | 
[V:5] F4F4 | 
[V:6] z8 | 
[V:1] B8 | 
[V:2] G4g4- | 
[V:3] d4G4- | 
[V:4] B8 | 
[V:5] G8 | 
[V:6] z4G,,4 | 
[V:1] G4A4 | 
[V:2] g4c4 | 
[V:3] G2E2A3G | 
[V:4] c8 | 
[V:5] E8 | 
[V:6] C,4A,,4 | 
[V:1] A4A4 | 
[V:2] f4d4 | 
[V:3] FEF3Dd2- | 
[V:4] d8- | 
[V:5] F8 | 
[V:6] D,8 | 
[V:1] G4B4 | 
[V:2] B3cdcde | 
[V:3] dcBAB4 | 
[V:4] d8 | 
[V:5] G8 | 
[V:6] G,,4G,4 | 
[V:1] A8 | 
[V:2] f4F3G | 
[V:3] c8 | 
[V:4] z8 | 
[V:5] A8- | 
[V:6] F,3G,A,B,A,2- | 
[V:1] F3GABA2- | 
[V:2] ABA4f2- | 
[V:3] z4F3G | 
[V:4] z4d4- | 
[V:5] A8 | 
[V:6] A,G,F,E,D,3E, | 
[V:1] AGG4F2 | 
[V:2] fed3cA2 | 
[V:3] A2B4A2- | 
[V:4] d4d4 | 
[V:5] z8 | 
[V:6] F,2G,2D,4 | 
[V:1] G4z4 | 
[V:2] B4z2c2 | 
[V:3] A2G2A4 | 
[V:4] _e4c4 | 
[V:5] z4A4- | 
[V:6] z4F,4- | 
[V:1] z4F4 | 
[V:2] A2F2f4- | 
[V:3] D4d4- | 
[V:4] d8 | 
[V:5] A4A4 | 
[V:6] F,4D,4 | 
[V:1] G4B4- | 
[V:2] f2ede4 | 
[V:3] d4B4 | 
[V:4] B8 | 
[V:5] B4G4 | 
[V:6] G,8 | 
[V:1] B4A4 | 
[V:2] f8- | 
[V:3] c8 | 
[V:4] z8 | 
[V:5] A8 | 
[V:6] F,8 | 
[V:1] B6A/G/A/B/ | 
[V:2] f8 | 
[V:3] B4F4 | 
[V:4] d6d2 | 
[V:5] F8 | 
[V:6] B,,4D,4 | 
[V:1] c4c3B | 
[V:2] z4e4 | 
[V:3] G4A4- | 
[V:4] e4c4 | 
[V:5] z8 | 
[V:6] C,4A,,4 | 
[V:1] AGA4F2 | 
[V:2] f6f/e/d/c/ | 
[V:3] A4D4 | 
[V:4] d8 | 
[V:5] A6A2 | 
[V:6] D,8 | 
[V:1] G3AB4 | 
[V:2] d2c2d2e2 | 
[V:3] G8 | 
[V:4] B8 | 
[V:5] B4G4 | 
[V:6] G,,8 | 
[V:1] A8 | 
[V:2] f3ed2cB | 
[V:3] F4z2F2- | 
[V:4] z8 | 
[V:5] A8 | 
[V:6] D,8- | 
[V:1] z4F4 | 
[V:2] A6GF | 
[V:3] F2D2F3E | 
[V:4] d6d2 | 
[V:5] F8 | 
[V:6] D,8 | 
[V:1] G4A4- | 
[V:2] c4z2F2- | 
[V:3] C2c3BAG | 
[V:4] _e4c4 | 
[V:5] z8 | 
[V:6] z4F,4 | 
[V:1] A4A4 | 
[V:2] FGA2F2f2- | 
[V:3] A2D2d4- | 
[V:4] d8 | 
[V:5] A6A2 | 
[V:6] F,4F,4 | 
[V:1] G4B4 | 
[V:2] f2ede4 | 
[V:3] d4B4 | 
[V:4] B8 | 
[V:5] B4G4 | 
[V:6] G,8 | 
[V:1] A4F3G | 
[V:2] f4F4 | 
[V:3] c2d4cB | 
[V:4] z8 | 
[V:5] A8 | 
[V:6] F,4D,2F,2- | 
[V:1] A2B3AA2- | 
[V:2] f6e2 | 
[V:3] A2d4c2 | 
[V:4] z8 | 
[V:5] F8 | 
[V:6] F,E,D,C,B,,2F,2 | 
[V:1] AGG4^F2 | 
[V:2] d2c2d4 | 
[V:3] B2G2A4 | 
[V:4] z8 | 
[V:5] z8 | 
[V:6] G,2E,2D,4 | 
[V:1] G4G4 | 
[V:2] B6AG | 
[V:3] G4z2d2 | 
[V:4] z8 | 
[V:5] z8 | 
[V:6] z2G,2G,4 | 
[V:1] G6F2 | 
[V:2] G4g4 | 
[V:3] e6d2 | 
[V:4] z8 | 
[V:5] z8 | 
[V:6] E,4C,4 | 
[V:1] E4D4 | 
[V:2] g6f2 | 
[V:3] c4d4 | 
[V:4] z8 | 
[V:5] z8 | 
[V:6] z4G,4 | 
[V:1] z4G4 | 
[V:2] _e4d4 | 
[V:3] z4G4- | 
[V:4] B8 | 
[V:5] z8 | 
[V:6] G,8 | 
[V:1] G8 | 
[V:2] _e8 | 
[V:3] G4_E4 | 
[V:4] B4c4 | 
[V:5] z8 | 
[V:6] _E,4C,4 | 
[V:1] F8 | 
[V:2] d8 | 
[V:3] F3EFGA2- | 
[V:4] A4B2d2- | 
[V:5] F8 | 
[V:6] D,8 | 
[V:1] D8 | 
[V:2] z4d4 | 
[V:3] AGFED4 | 
[V:4] dcc4=B2 | 
[V:5] F4G4 | 
[V:6] z4G,,4 | 
[V:1] z4F4 | 
[V:2] _e3dcBc2- | 
[V:3] z2C2F4 | 
[V:4] c8 | 
[V:5] _E4F2A2- | 
[V:6] C,3B,,A,,G,,F,,2 | 
[V:1] G4A4 | 
[V:2] cAB2c4 | 
[V:3] E2D4C2 | 
[V:4] z8 | 
[V:5] AGG4^F2 | 
[V:6] C,2B,,2A,,4 | 
[V:1] B4G4 | 
[V:2] B8- | 
[V:3] D4d4 | 
[V:4] z8 | 
[V:5] G8 | 
[V:6] G,,8 | 
[V:1] B4A2B2- | 
[V:2] B4z4 | 
[V:3] d2d3cBA | 
[V:4] z4d4 | 
[V:5] z8 | 
[V:6] G,4F,2G,2- | 
[V:1] BAGFG2F2 | 
[V:2] z8 | 
[V:3] G2c3BA2 | 
[V:4] _e6d2 | 
[V:5] z8 | 
[V:6] G,F,_E,D,C,2F,2 | 
[V:1] z2G2A2c2 | 
[V:2] z2d2e2f2 | 
[V:3] G4z4 | 
[V:4] c2B2A4 | 
[V:5] z4A4 | 
[V:6] E,D,G,4F,2 | 
[V:1] B2d3cA2 | 
[V:2] d2g3ef2 | 
[V:3] z2d2d3c | 
[V:4] G4z4 | 
[V:5] B6A2 | 
[V:6] G,4D,4 | 
[V:1] B2A3GE2 | 
[V:2] Bcd3Bc2 | 
[V:3] d2D2A4 | 
[V:4] z8 | 
[V:5] G2F2E4 | 
[V:6] z2D,2A,,2A,,2 | 
[V:1] F2DEFGAB | 
[V:2] F2f2f2f2 | 
[V:3] z2d2d2d2 | 
[V:4] z4d4 | 
[V:5] D4z4 | 
[V:6] D,4D,4 | 
[V:1] cBG3ABc | 
[V:2] gf_edc2d2 | 
[V:3] G8 | 
[V:4] _e6d2 | 
[V:5] z8 | 
[V:6] C,6B,,2 | 
[V:1] A2G4^F2 | 
[V:2] e4d4- | 
[V:3] E4F4 | 
[V:4] c2B2A4 | 
[V:5] z4A4 | 
[V:6] C,4D,4 | 
[V:1] G8- | 
[V:2] d4B4 | 
[V:3] D2d2d2d2 | 
[V:4] G8- | 
[V:5] B6A2 | 
[V:6] G,,4G,3F, | 
[V:1] G8- | 
[V:2] c8 | 
[V:3] G4c4 | 
[V:4] G8- | 
[V:5] G2F2_E4 | 
[V:6] _E,2D,2C,4 | 
[V:1] G8 ||  
[V:2] d8 ||  
[V:3] B8 ||  
[V:4] G8 ||  
[V:5] D8 ||  
[V:6] G,,8 ||  
[V:1]  [K:F] [K:clef=treble][M:2/1]A8- | 
[V:2]  [K:F] [K:clef=treble-8][M:2/1]c8 | 
[V:3]  [K:F] [K:clef=treble-8][M:2/1]A8 | 
[V:4]  [K:F] [K:clef=treble-8][M:2/1]z8 | 
[V:5]  [K:F] [K:clef=treble-8][M:2/1]z8 | 
[V:6]  [K:F] [K:clef=bass][M:2/1]F,8- | 
[V:1] A8 | 
[V:2] A4F4 | 
[V:3] c8- | 
[V:4] z8 | 
[V:5] z8 | 
[V:6] F,8 | 
[V:1] c8 | 
[V:2] G6A2 | 
[V:3] c4G4- | 
[V:4] z8 | 
[V:5] z8 | 
[V:6] C,3D,E,2F,2 | 
[V:1] B8 | 
[V:2] B2c2dGg2- | 
[V:3] G2A2B2c2 | 
[V:4] z8 | 
[V:5] z8 | 
[V:6] G,8 | 
[V:1] A4G4- | 
[V:2] g2f2e2c2 | 
[V:3] d4G4 | 
[V:4] z8 | 
[V:5] z8 | 
[V:6] D,4E,4 | 
[V:1] G2^FEF4 | 
[V:2] d8- | 
[V:3] A8 | 
[V:4] z8 | 
[V:5] z8 | 
[V:6] D,8 | 
[V:1] G8 | 
[V:2] d8- | 
[V:3] z4G4 | 
[V:4] z8 | 
[V:5] z8 | 
[V:6] G,,8 | 
[V:1] z4G4- | 
[V:2] d8 | 
[V:3] B4B4 | 
[V:4] z8 | 
[V:5] z8 | 
[V:6] G,4G,4 | 
[V:1] G4F4 | 
[V:2] d4d4 | 
[V:3] B8 | 
[V:4] z8 | 
[V:5] z8 | 
[V:6] G,4B,4- | 
[V:1] G4A4 | 
[V:2] d4f4- | 
[V:3] G4c4- | 
[V:4] z8 | 
[V:5] z8 | 
[V:6] B,4A,4 | 
[V:1] B8 | 
[V:2] f4e4 | 
[V:3] c2BAB4 | 
[V:4] z8 | 
[V:5] z8 | 
[V:6] G,8 | 
[V:1] A4F4 | 
[V:2] c4f4- | 
[V:3] c8- | 
[V:4] z8 | 
[V:5] z8 | 
[V:6] F,6E,D, | 
[V:1] G8 | 
[V:2] f2ede4 | 
[V:3] c8 | 
[V:4] z8 | 
[V:5] z8 | 
[V:6] C,8 | 
[V:1] F8- | 
[V:2] f4d4- | 
[V:3] F8 | 
[V:4] z8 | 
[V:5] z8 | 
[V:6] z4B,,4- | 
[V:1] F8- | 
[V:2] d4c4 | 
[V:3] z4F4- | 
[V:4] z8 | 
[V:5] z8 | 
[V:6] B,,4A,,4 | 
[V:1] F8 | 
[V:2] d8- | 
[V:3] F4F4 | 
[V:4] B8 | 
[V:5] z8 | 
[V:6] B,,6A,,2 | 
[V:1] z8 | 
[V:2] d8 | 
[V:3] G4G4 | 
[V:4] B4B4 | 
[V:5] z8 | 
[V:6] G,,8 | 
[V:1] c8 | 
[V:2] z4f4- | 
[V:3] A6G2 | 
[V:4] c8 | 
[V:5] F8 | 
[V:6] z8 | 
[V:1] c4d4- | 
[V:2] f4f4 | 
[V:3] F2E2D4- | 
[V:4] A8 | 
[V:5] F4F4 | 
[V:6] z4D,4 | 
[V:1] d2c2B3A | 
[V:2] d6g2- | 
[V:3] D4G4 | 
[V:4] B8 | 
[V:5] G8 | 
[V:6] B,,4G,,4 | 
[V:1] G8 | 
[V:2] gfede4 | 
[V:3] G4G4 | 
[V:4] c8 | 
[V:5] E8 | 
[V:6] C,8 | 
[V:1] z8 | 
[V:2] d4z2d2 | 
[V:3] B4A2B2- | 
[V:4] d8 | 
[V:5] F8 | 
[V:6] B,,3C,D,2B,,2 | 
[V:1] z4G4 | 
[V:2] B3AB2c2 | 
[V:3] BAd4c2 | 
[V:4] z8 | 
[V:5] G8 | 
[V:6] _E,8 | 
[V:1] F3GA4 | 
[V:2] F2f4f2 | 
[V:3] d3cA2d2- | 
[V:4] z8 | 
[V:5] A8 | 
[V:6] D,8 | 
[V:1] B6A2- | 
[V:2] g3fedd2- | 
[V:3] dcBAG2A2 | 
[V:4] z8 | 
[V:5] z8 | 
[V:6] G,6F,2 | 
[V:1] AGG4^F2 | 
[V:2] d2c2d4 | 
[V:3] B2c2A4 | 
[V:4] z4d4- | 
[V:5] z8 | 
[V:6] E,4D,4 | 
[V:1] G8 | 
[V:2] B4z2B2 | 
[V:3] z2G2G4 | 
[V:4] d4d4 | 
[V:5] z8 | 
[V:6] G,,8 | 
[V:1] G4A4- | 
[V:2] c8 | 
[V:3] _E4F4- | 
[V:4] _e4c4 | 
[V:5] z4A4- | 
[V:6] z8 | 
[V:1] A2G2F3E | 
[V:2] A4d4- | 
[V:3] F2_E2D4 | 
[V:4] d8 | 
[V:5] A4A4 | 
[V:6] z4z2D,2 | 
[V:1] D4z4 | 
[V:2] d4_e4 | 
[V:3] z8 | 
[V:4] B8 | 
[V:5] B4G4 | 
[V:6] G,4_E,4 | 
[V:1] F8 | 
[V:2] c8 | 
[V:3] z8 | 
[V:4] z8 | 
[V:5] A8 | 
[V:6] F,6E,2 | 
[V:1] F8 | 
[V:2] d8 | 
[V:3] z4D4 | 
[V:4] z4d4- | 
[V:5] F8 | 
[V:6] D,8 | 
[V:1] G8 | 
[V:2] z4B4 | 
[V:3] G8 | 
[V:4] d4d4 | 
[V:5] z8 | 
[V:6] z8 | 
[V:1] G4A4- | 
[V:2] c8 | 
[V:3] _E4F4- | 
[V:4] _e4c4 | 
[V:5] z4A4- | 
[V:6] z8 | 
[V:1] A4F4 | 
[V:2] A4d4- | 
[V:3] F2_E2D4 | 
[V:4] d8 | 
[V:5] A4A4 | 
[V:6] D,8 | 
[V:1] G8 | 
[V:2] d4_e4 | 
[V:3] z8 | 
[V:4] B8 | 
[V:5] B4G4 | 
[V:6] G,4_E,4 | 
[V:1] F8- | 
[V:2] c4c4 | 
[V:3] z4A4 | 
[V:4] z8 | 
[V:5] A8 | 
[V:6] F,8 | 
[V:1] F8 | 
[V:2] d6cB | 
[V:3] B6AG | 
[V:4] z4d4- | 
[V:5] F8 | 
[V:6] B,,4B,,4 | 
[V:1] z4A4 | 
[V:2] A8 | 
[V:3] F4F4 | 
[V:4] d4d4 | 
[V:5] z8 | 
[V:6] D,8 | 
[V:1] c6B2 | 
[V:2] z4c4 | 
[V:3] G4A4 | 
[V:4] _e4c4 | 
[V:5] z4A4- | 
[V:6] C,4F,4- | 
[V:1] A8 | 
[V:2] f8 | 
[V:3] D4d4- | 
[V:4] d8 | 
[V:5] A4A4 | 
[V:6] F,4D,4 | 
[V:1] G8 | 
[V:2] d6d/c/d/e/ | 
[V:3] d2c2B4 | 
[V:4] B8 | 
[V:5] B4G4 | 
[V:6] G,8 | 
[V:1] F4F3G | 
[V:2] f2F3GAB | 
[V:3] A4F4 | 
[V:4] z8 | 
[V:5] A8 | 
[V:6] D,8- | 
[V:1] A2B2AGFE | 
[V:2] A2d2d3e | 
[V:3] F3GA2B2- | 
[V:4] z8 | 
[V:5] F8 | 
[V:6] D,8 | 
[V:1] D2B3AG2 | 
[V:2] fdg2f3e | 
[V:3] BAd3cB2 | 
[V:4] z8 | 
[V:5] z8 | 
[V:6] B,,4B,,3C, | 
[V:1] F2G4^F2 | 
[V:2] d2c2d4 | 
[V:3] A2G2A4 | 
[V:4] z8 | 
[V:5] z8 | 
[V:6] D,2_E,2D,4 | 
[V:1] G4G4 | 
[V:2] B6AG | 
[V:3] G4z2d2 | 
[V:4] z8 | 
[V:5] z8 | 
[V:6] z2G,2G,4 | 
[V:1] G6F2 | 
[V:2] G4g4 | 
[V:3] _e6d2 | 
[V:4] z8 | 
[V:5] z8 | 
[V:6] _E,4C,4 | 
[V:1] _E4D4 | 
[V:2] g6f2 | 
[V:3] c3Bd4 | 
[V:4] z8 | 
[V:5] z8 | 
[V:6] z4G,4 | 
[V:1] z4G4 | 
[V:2] _e4d4 | 
[V:3] z4G4- | 
[V:4] B8 | 
[V:5] z8 | 
[V:6] G,8 | 
[V:1] G8 | 
[V:2] _e8 | 
[V:3] G4_E4 | 
[V:4] B4c4 | 
[V:5] z8 | 
[V:6] _E,4C,4 | 
[V:1] F8 | 
[V:2] d8 | 
[V:3] F3EFGA2- | 
[V:4] A4B2d2- | 
[V:5] F8 | 
[V:6] D,8 | 
[V:1] D8 | 
[V:2] z4d4 | 
[V:3] AGFED4 | 
[V:4] dcc4=B2 | 
[V:5] F4G4 | 
[V:6] z4G,,4 | 
[V:1] z4F4 | 
[V:2] e3dcBc2- | 
[V:3] z2C2F4 | 
[V:4] c8 | 
[V:5] E4F2A2- | 
[V:6] C,3B,,A,,G,,F,,2 | 
[V:1] G4A4 | 
[V:2] cAB2c4 | 
[V:3] E2D4C2 | 
[V:4] z8 | 
[V:5] AGG4^F2 | 
[V:6] C,2B,,2A,,4 | 
[V:1] B4G4 | 
[V:2] B8- | 
[V:3] D4d4 | 
[V:4] z8 | 
[V:5] G8 | 
[V:6] G,,8 | 
[V:1] B4A2B2- | 
[V:2] B4z4 | 
[V:3] d2d3cBA | 
[V:4] z4d4 | 
[V:5] z8 | 
[V:6] G,4F,2G,2- | 
[V:1] BAGFG2F2 | 
[V:2] z8 | 
[V:3] G2c3BA2 | 
[V:4] _e6d2 | 
[V:5] z8 | 
[V:6] G,F,_E,D,C,2F,2 | 
[V:1] z2G2A2c2 | 
[V:2] z2d2e2f2 | 
[V:3] G4z4 | 
[V:4] c2B2A4 | 
[V:5] z4A4 | 
[V:6] E,D,G,4F,2 | 
[V:1] B2d3cA2 | 
[V:2] d2g3ef2 | 
[V:3] z2d2d3c | 
[V:4] G4z4 | 
[V:5] B6A2 | 
[V:6] G,4D,4 | 
[V:1] B2A3GE2 | 
[V:2] Bcd3Bc2 | 
[V:3] d2D2A4 | 
[V:4] z8 | 
[V:5] G2F2E4 | 
[V:6] z2D,2A,,2A,,2 | 
[V:1] F2DEFGAB | 
[V:2] F2f2f2f2 | 
[V:3] z2d2d2d2 | 
[V:4] z4d4 | 
[V:5] D4z4 | 
[V:6] D,4D,4 | 
[V:1] cBG3ABc | 
[V:2] gf_edc2d2 | 
[V:3] G8 | 
[V:4] _e6d2 | 
[V:5] z8 | 
[V:6] C,6B,,2 | 
[V:1] A2G4^F2 | 
[V:2] _e4d4- | 
[V:3] _E4F4 | 
[V:4] c2B2A4 | 
[V:5] z4A4 | 
[V:6] C,4D,4 | 
[V:1] G8- | 
[V:2] d4B4 | 
[V:3] D2d2d2d2 | 
[V:4] G8- | 
[V:5] B6A2 | 
[V:6] G,,4G,3F, | 
[V:1] G8- | 
[V:2] c8 | 
[V:3] G4c4 | 
[V:4] G8- | 
[V:5] G2F2_E4 | 
[V:6] _E,2D,2C,4 | 
[V:1] G8 |]  
[V:2] d8 |]  
[V:3] B8 |]  
[V:4] G8 |]  
[V:5] D8 |]  
[V:6] G,,8 |]  



